X:2143
T:Bröllopsmarsch efter Torp Nils Ersa Slandrom
R:Marsch
O:Jämtland
Z:Jon Bergström 
S: Svenska Låtar Jämtland Härjedalen nr 287 
L:1/8
M:C
K:D
(3gfe  |: d d3 (ed)cd | e3 f (ga)bg | e2 c2 c2 c2 | 
d3 f abc'd' | d2 d2 (ed)cd | e3 f (ga)bg | e2 c2 c2 (ce) | [1 d3 (3gfe  :|[2 d3 (3bag|]
|: f2 f2 (fe)fa | g3 a {bc'}(ba)gf | e2 e2 (^de)gb |aba^g ab=c'd' | 
d2 d2 {f}(ed)(cd) | e2 d'2 b2 (ge) | c2 [c2A,2] [c2A,2] (ce) | [1 d6 (3bag :| [2 d6 z2|](:musicend:)
(:music:)
